X:1
T:Boys of Tulla
R:reel
Z:Transcribed by Dave Marshall
F:Found at www2.redhawk.org Nov 2009
M:C|
K:D
|:\
d2Ad BdAd | d2fd edBc |\
d2Ad BdAd | faba fe~e2 ::\
fe (3eee fede |
fe (3eee faba |\
[1 fe (3eee fedB | ABde faba :|\
[2 ~f3a fedB | ABde fedc |]
